www/assets/images/test_icons/flags/BN.svg

<svg fill="none" height="15" viewBox="0 0 21 15" width="21" xmlns="http://www.w3.org/2000/svg" xmlns:xlink="http://www.w3.org/1999/xlink"><mask id="a" height="15" maskUnits="userSpaceOnUse" width="21" x="0" y="0"><path d="m19 0h-17c-1.10457 0-2 .89543-2 2v11c0 1.1046.89543 2 2 2h17c1.1046 0 2-.8954 2-2v-11c0-1.10457-.8954-2-2-2z" fill="#fff"/></mask><g mask="url(#a)"><path d="m19 0h-17c-1.10457 0-2 .89543-2 2v11c0 1.1046.89543 2 2 2h17c1.1046 0 2-.8954 2-2v-11c0-1.10457-.8954-2-2-2z" fill="#f8e200"/><g clip-rule="evenodd" fill-rule="evenodd"><path d="m0 0 21 10v4l-21-10z" fill="#fff"/><path d="m0 3 21 10v2l-21-10z" fill="#000"/><path d="m8 7 1 1v4l-2-1v-2l-2-2 2-2 1 1zm1 2h3v1h-3zm4-2-1 1v4l2-1v-2l2-2-2-2-1 1zm-4-1h3l-1.5-3z" fill="#d1091e"/></g><path d="m19 .5h-17c-.82843 0-1.5.67157-1.5 1.5v11c0 .8284.67157 1.5 1.5 1.5h17c.8284 0 1.5-.6716 1.5-1.5v-11c0-.82843-.6716-1.5-1.5-1.5z" stroke="#000" stroke-opacity=".1"/></g></svg>

<svg width="21" height="15" viewBox="0 0 21 15" fill="none" xmlns="http://www.w3.org/2000/svg">
<mask id="mask0_3_192" style="mask-type:alpha" maskUnits="userSpaceOnUse" x="0" y="0" width="21" height="15">
<path d="M19 0H2C0.89543 0 0 0.89543 0 2V13C0 14.1046 0.89543 15 2 15H19C20.1046 15 21 14.1046 21 13V2C21 0.89543 20.1046 0 19 0Z" fill="white"/>
</mask>
<g mask="url(#mask0_3_192)">
<path d="M19 0H2C0.89543 0 0 0.89543 0 2V13C0 14.1046 0.89543 15 2 15H19C20.1046 15 21 14.1046 21 13V2C21 0.89543 20.1046 0 19 0Z" fill="#F8E200"/>
<path fill-rule="evenodd" clip-rule="evenodd" d="M0 0L21 10V14L0 4V0Z" fill="white"/>
<path fill-rule="evenodd" clip-rule="evenodd" d="M0 3L21 13V15L0 5V3Z" fill="black"/>
<path fill-rule="evenodd" clip-rule="evenodd" d="M8 7L9 8V12L7 11V9L5 7L7 5L8 6V7ZM9 9H12V10H9V9ZM13 7L12 8V12L14 11V9L16 7L14 5L13 6V7ZM9 6H12L10.5 3L9 6Z" fill="#D1091E"/>
<path d="M19 0.5H2C1.17157 0.5 0.5 1.17157 0.5 2V13C0.5 13.8284 1.17157 14.5 2 14.5H19C19.8284 14.5 20.5 13.8284 20.5 13V2C20.5 1.17157 19.8284 0.5 19 0.5Z" stroke="black" stroke-opacity="0.1"/>
</g>
</svg>
